24x24/apps/endless-sky.svg

<svg xmlns="http://www.w3.org/2000/svg" width="24" height="24" version="1">
 <rect style="opacity:0.2" width="20" height="20" x="2" y="2.5" rx="1" ry="1"/>
 <rect style="fill:#3c4164" width="20" height="20" x="2" y="2" rx="1" ry="1"/>
 <rect style="fill:#ff6a5b" width="4.281" height=".313" x="9.22" y="-.56" transform="matrix(0.70710678,0.70710678,0.70710678,-0.70710678,0,0)"/>
 <path style="opacity:0.2" d="m 15.729908,6.9194055 c 0.972681,-0.972681 1.102984,-2.4194058 1.102984,-2.4194058 0,0 -1.446724,0.1303032 -2.419405,1.1029843 -0.972681,0.972681 -0.683452,1.2728345 -0.319933,1.636354 0.36352,0.36352 0.663673,0.6527485 1.636354,-0.3199325 z"/>
 <path style="fill:#5f5f5f" d="m 9.4917055,10.073606 0.309383,0.602916 -0.293532,0.293532 1.1741305,1.17413 2.358897,-2.416242 0.992005,-2.188709 c 0.16257,-0.288298 0.143655,-0.310879 -0.07531,-0.5298475 L 13.787702,6.839812 C 13.555912,6.6126005 13.608259,6.69217 13.348243,6.7664555 l -1.297455,0.747944 z"/>
 <path style="fill:#797979" d="M 5.86007,6.3986305 11.22296,11.76152 13.357864,9.5634785 7.497731,4.7609696 Z"/>
 <rect style="opacity:0.2" width="1.222" height="3.818" x="9.02" y="-1.68" rx=".623" ry=".623" transform="matrix(0.70710678,0.70710678,0.70710678,-0.70710678,0,0)"/>
 <rect style="fill:#959595" width="1.222" height="3.818" x="8.67" y="-1.32" rx=".623" ry=".623" transform="matrix(0.70710678,0.70710678,0.70710678,-0.70710678,0,0)"/>
 <path style="fill:#ff5722" d="m 15.729908,6.4194055 c 0.972681,-0.972681 1.102984,-2.4194056 1.102984,-2.4194056 0,0 -1.446724,0.1303032 -2.419405,1.1029841 -0.972681,0.972681 -0.683452,1.2728345 -0.319933,1.636354 0.36352,0.36352 0.663673,0.6527485 1.636354,-0.3199325 z"/>
 <path style="fill:#ffee58" d="M 14.093428,6.739632 C 13.891445,6.537649 13.721327,6.3510755 13.768937,6.0619845 c 0.0088,-0.00896 0.01382,-0.016105 0.02293,-0.025225 0.713627,-0.713627 1.774955,-0.809508 1.774955,-0.809508 0,0 -0.09588,1.061328 -0.809508,1.774955 -0.03039,0.03039 -0.05506,0.049725 -0.0837,0.076822 -0.236396,-9.5e-4 -0.401061,-0.160272 -0.580185,-0.3393965 z"/>
 <rect style="opacity:0.2" width="1.222" height="3.818" x="12.8" y="-1.26" rx=".623" ry=".623" transform="matrix(0.70710678,0.70710678,0.70710678,-0.70710678,0,0)"/>
 <rect style="fill:#959595" width="1.222" height="3.818" x="12.45" y="-.91" rx=".623" ry=".623" transform="matrix(0.70710678,0.70710678,0.70710678,-0.70710678,0,0)"/>
 <rect style="fill:#ff6a5b" width="4.281" height=".313" x="-24.72" y="-.56" transform="rotate(-135)"/>
 <path style="fill:#5f5f5f" d="m 13.926395,14.508295 -0.602916,-0.309384 -0.293533,0.293533 -1.17413,-1.17413 2.416242,-2.358897 2.188709,-0.9920055 c 0.288298,-0.162571 0.310879,-0.1436555 0.529847,0.075314 l 0.169574,0.169574 c 0.227211,0.23179 0.147642,0.179442 0.07336,0.439458 l -0.747943,1.297455 z"/>
 <path style="fill:#797979" d="m 17.601369,18.13993 -5.362889,-5.362889 2.198042,-2.134905 4.802508,5.860133 z"/>
 <path style="opacity:0.2" d="m 4.2050523,20.445153 c 0.1297881,0.09627 0.3821638,0.07341 0.7131923,-0.129567 L 8.05136,17.583785 c 0,0 1.1144845,-0.329599 1.5020605,-0.729245 0.372764,-0.38437 0.6564355,-1.465942 0.6564355,-1.465942 L 11.786447,15.27279 14.758463,12.140249 14.436838,11.142123 15.425217,10.087241 14.918988,9.581012 14.412759,9.074783 13.357877,10.063162 12.359752,9.7415375 9.22721,12.713554 9.111402,14.290144 c 0,0 -1.0815725,0.283671 -1.4659425,0.656435 -0.399646,0.387576 -0.729245,1.502061 -0.729245,1.502061 l -2.7318011,3.133115 c -0.2029797,0.331029 -0.2258406,0.583404 -0.1295669,0.713192 0.021799,0.02939 0.05498,0.04563 0.088289,0.06192 0.016285,0.03331 0.03253,0.06649 0.061917,0.08829 z"/>
 <rect style="opacity:0.2" width="1.222" height="3.818" x="-25.63" y="-1.68" rx=".623" ry=".623" transform="rotate(-135)"/>
 <rect style="fill:#959595" width="1.222" height="3.818" x="-25.27" y="-1.32" rx=".623" ry=".623" transform="rotate(-135)"/>
 <path style="fill:#959595" d="m 4.2050523,19.945153 c 0.1297881,0.09627 0.3821638,0.07341 0.7131923,-0.129567 L 8.05136,17.083785 c 0,0 1.1144845,-0.329599 1.5020605,-0.729245 0.372764,-0.38437 0.6564355,-1.465942 0.6564355,-1.465942 L 11.786447,14.77279 14.758463,11.640249 14.436838,10.642123 15.425217,9.5872405 14.918988,9.081012 14.412759,8.574783 13.357877,9.563162 12.359752,9.2415375 9.22721,12.213554 9.111402,13.790144 c 0,0 -1.0815725,0.283671 -1.4659425,0.656435 -0.399646,0.387576 -0.729245,1.502061 -0.729245,1.502061 l -2.7318011,3.133115 c -0.2029797,0.331029 -0.2258406,0.583404 -0.1295669,0.713192 0.021799,0.02939 0.05498,0.04563 0.088289,0.06192 0.016285,0.03331 0.03253,0.06649 0.061917,0.08829 z"/>
 <path style="opacity:0.4" d="m 8.3545205,16.631565 c 0.169953,-0.06878 0.610616,-0.48714 0.757088,-0.571337 l -1.171837,-1.171837 c -0.084197,0.146472 -0.502561,0.587135 -0.571337,0.757088 -0.2279865,0.541473 0.5345605,1.216438 0.986086,0.986086 z"/>
 <path style="opacity:0.2" d="M 17.580594,8.770092 C 18.553276,7.797411 20,7.667108 20,7.667108 c 0,0 -0.130303,1.4467245 -1.102984,2.419405 -0.972681,0.972682 -1.272835,0.683453 -1.636354,0.319933 -0.36352,-0.36352 -0.652748,-0.6636735 0.319932,-1.636354 z"/>
 <path style="fill:#ff5722" d="M 17.580594,8.270092 C 18.553276,7.297411 20,7.167108 20,7.167108 c 0,0 -0.130303,1.4467245 -1.102984,2.4194055 -0.972681,0.9726815 -1.272835,0.6834525 -1.636354,0.3199325 -0.36352,-0.3635195 -0.652748,-0.6636735 0.319932,-1.636354 z"/>
 <path style="fill:#ffee58" d="m 17.260368,9.906572 c 0.201983,0.201983 0.388556,0.372101 0.677647,0.324491 0.009,-0.0088 0.0161,-0.01382 0.02522,-0.02293 0.713627,-0.713627 0.809508,-1.7749545 0.809508,-1.7749545 0,0 -1.061328,0.09588 -1.774954,0.8095075 -0.03039,0.03039 -0.04972,0.055065 -0.07682,0.083703 9.5e-4,0.2363965 0.160272,0.401061 0.339397,0.5801855 z"/>
 <rect style="opacity:0.2" width="1.222" height="3.818" x="-21.85" y="-1.26" rx=".623" ry=".623" transform="rotate(-135)"/>
 <rect style="fill:#959595" width="1.222" height="3.818" x="-21.49" y="-.91" rx=".623" ry=".623" transform="rotate(-135)"/>
 <path style="opacity:0.2;fill:#f4f4f7" d="M 10.209856,14.888599 9.111402,13.790145 13.357877,9.563162 14.895345,9.104655 14.436838,10.642124 Z"/>
 <path style="opacity:0.1;fill:#f4f4f7" d="M 3,2 C 2.446,2 2,2.446 2,3 v 0.5 c 0,-0.554 0.446,-1 1,-1 h 18 c 0.554,0 1,0.446 1,1 V 3 C 22,2.446 21.554,2 21,2 Z"/>
</svg>

<svg xmlns="http://www.w3.org/2000/svg" width="24" height="24" version="1"><rect style="opacity:.2" width="20" height="20" x="2" y="2.5" rx="1" ry="1"/><rect style="fill:#3c4164" width="20" height="20" x="2" y="2" rx="1" ry="1"/><path style="fill:#ff6a5b" transform="scale(1 -1) rotate(-45)" d="M9.22-.56h4.281v.313H9.22z"/><path style="opacity:.2" d="M15.73 6.92c.973-.973 1.103-2.42 1.103-2.42s-1.447.13-2.42 1.103c-.972.973-.683 1.273-.32 1.636.364.364.664.653 1.637-.32z"/><path style="fill:#5f5f5f" d="m9.492 10.074.31.603-.294.293 1.174 1.174 2.359-2.416.992-2.189c.162-.288.143-.31-.076-.53l-.17-.17c-.231-.226-.179-.147-.439-.073l-1.297.748z"/><path style="fill:#797979" d="m5.86 6.399 5.363 5.363 2.135-2.199-5.86-4.802z"/><rect style="opacity:.2" width="1.222" height="3.818" x="9.02" y="-1.68" rx=".623" ry=".623" transform="scale(1 -1) rotate(-45)"/><rect style="fill:#959595" width="1.222" height="3.818" x="8.67" y="-1.32" rx=".623" ry=".623" transform="scale(1 -1) rotate(-45)"/><path style="fill:#ff5722" d="M15.73 6.42C16.703 5.446 16.833 4 16.833 4s-1.447.13-2.42 1.103c-.972.973-.683 1.273-.32 1.636.364.364.664.653 1.637-.32z"/><path style="fill:#ffee58" d="M14.093 6.74c-.202-.202-.372-.389-.324-.678l.023-.025c.713-.714 1.775-.81 1.775-.81s-.096 1.062-.81 1.775c-.03.03-.055.05-.083.077-.237 0-.401-.16-.58-.34z"/><rect style="opacity:.2" width="1.222" height="3.818" x="12.8" y="-1.26" rx=".623" ry=".623" transform="scale(1 -1) rotate(-45)"/><rect style="fill:#959595" width="1.222" height="3.818" x="12.45" y="-.91" rx=".623" ry=".623" transform="scale(1 -1) rotate(-45)"/><path style="fill:#ff6a5b" transform="rotate(-135)" d="M-24.72-.56h4.281v.313h-4.281z"/><path style="fill:#5f5f5f" d="m13.926 14.508-.603-.31-.293.294-1.174-1.174 2.416-2.359 2.189-.992c.288-.162.31-.143.53.076l.17.17c.226.231.147.179.073.439l-.748 1.297z"/><path style="fill:#797979" d="m17.601 18.14-5.363-5.363 2.199-2.135 4.802 5.86z"/><path style="opacity:.2" d="M4.205 20.445c.13.096.382.074.713-.13l3.133-2.731s1.115-.33 1.502-.73c.373-.384.657-1.465.657-1.465l1.576-.116 2.972-3.133-.321-.998.988-1.055-.506-.506-.506-.506-1.055.988-.998-.321-3.133 2.972-.116 1.576s-1.081.284-1.466.657c-.4.387-.729 1.502-.729 1.502l-2.732 3.133c-.203.33-.225.583-.13.713.023.03.056.046.09.062a.227.227 0 0 0 .061.088z"/><rect style="opacity:.2" width="1.222" height="3.818" x="-25.63" y="-1.68" rx=".623" ry=".623" transform="rotate(-135)"/><rect style="fill:#959595" width="1.222" height="3.818" x="-25.27" y="-1.32" rx=".623" ry=".623" transform="rotate(-135)"/><path style="fill:#959595" d="M4.205 19.945c.13.096.382.074.713-.13l3.133-2.731s1.115-.33 1.502-.73c.373-.384.657-1.465.657-1.465l1.576-.116 2.972-3.133-.321-.998.988-1.055-.506-.506-.506-.506-1.055.988-.998-.321-3.133 2.972-.116 1.576s-1.081.284-1.466.657c-.4.387-.729 1.502-.729 1.502l-2.732 3.133c-.203.33-.225.583-.13.713.023.03.056.046.09.062a.227.227 0 0 0 .061.088z"/><path style="opacity:.4" d="M8.355 16.632c.17-.07.61-.488.757-.572L7.94 14.888c-.084.147-.503.588-.572.757-.228.542.535 1.217.987.987z"/><path style="opacity:.2" d="M17.58 8.77C18.554 7.797 20 7.667 20 7.667s-.13 1.447-1.103 2.42c-.973.972-1.273.683-1.636.32-.364-.364-.653-.664.32-1.637z"/><path style="fill:#ff5722" d="M17.58 8.27C18.554 7.297 20 7.167 20 7.167s-.13 1.447-1.103 2.42c-.973.972-1.273.683-1.636.32-.364-.364-.653-.664.32-1.637z"/><path style="fill:#ffee58" d="M17.26 9.907c.202.202.389.372.678.324l.025-.023c.714-.713.81-1.775.81-1.775s-1.062.096-1.775.81c-.03.03-.05.055-.077.083 0 .237.16.401.34.58z"/><rect style="opacity:.2" width="1.222" height="3.818" x="-21.85" y="-1.26" rx=".623" ry=".623" transform="rotate(-135)"/><rect style="fill:#959595" width="1.222" height="3.818" x="-21.49" y="-.91" rx=".623" ry=".623" transform="rotate(-135)"/><path style="opacity:.2;fill:#f4f4f7" d="M10.21 14.889 9.11 13.79l4.247-4.227 1.537-.458-.458 1.537z"/><path style="opacity:.1;fill:#f4f4f7" d="M3 2c-.554 0-1 .446-1 1v.5c0-.554.446-1 1-1h18c.554 0 1 .446 1 1V3c0-.554-.446-1-1-1z"/></svg>
